X:1
T:Guildford, 99.99 D
T:Guildford, 99.99 D
T:John H. Kissinger, 1881
T:Public Domain Courtesy of the Cyber Hymnal™
C:John H. Kissinger, 1881
Z:Public Domain
Z:Courtesy of the Cyber Hymnal™
%%score ( 1 2 ) ( 3 4 )
L:1/8
Q:1/4=100
M:4/4
K:A
V:1 treble 
V:2 treble 
V:3 bass 
V:4 bass 
V:1
 [Ec]2 [Ec]>[DB] [CA]2 [CE]2 | [DF]2 [FA]>[DF] [CE]3 z | [EA]2 [EB]>[EB] [Ec]2 [CA]2 | %3
 [Fd]2 [Ec]>[Ec] [EB]4 x8 | [Ec]2 [Ec]>[DB] [CA]2 [CE]2 | [DF]2 [FA]>[DF] [CE]3 z | %6
 [EA]2 [EB]>[EB] [Ec]2 [Fd]>[FB] | [EA]2 [EG]2 [EA]4 | [EG]2 [EG]>[FA] [GB]2 [Ac]>[Ac] | %9
 [Ae]2 [Ac]2 [GB]4 | [EG]2 [EG]>[FA] [GB]2 [Ac]>[Ac] | [Ge]2 [F^d]2 [Ge]4 | %12
 [Ee]2 [Ec]>[DB] [CA]2 E>E | [DF]2 ([FA][DF]) [CE]4 | [EA]2 [EB]>[EB] [Ec]2 (dB) | %15
 [EA]2 [EG]>[EG] [EA]4 |] %16
V:2
 x8 | x8 | x8 | x16 | x8 | x8 | x8 | x8 | x8 | x8 | x8 | x8 | x6 E>E | x8 | x6 F2 | x8 |] %16
V:3
 [A,,A,]2 [A,,A,]>[A,,A,] [A,,A,]2 [A,,A,]2 | [D,A,]2 [D,A,]>[D,A,] [A,,A,]3 z | %2
 [C,A,]2 [E,G,]>[E,G,] [A,,A,]2 [A,,A,]2 | %3
 [D,A,]2 [A,,A,]>[A,,A,] [E,G,]4 [A,,A,]2 [A,,A,]>[A,,A,] [A,,A,]2 [A,,A,]2 | %4
 [D,A,]2 [D,A,]>[D,A,] [A,,A,]3 z | [C,A,]2 [E,G,]>[E,G,] [A,,A,]2 [D,A,]>[D,D] | %6
 [E,C]2 (B,D) [A,,C]4 | [E,B,]2 [E,B,]>[E,B,] [E,E]2 [A,E]>[A,E] | [A,C]2 [A,E]2 [E,E]4 | %9
 [E,B,]2 [E,B,]>[E,B,] [E,E]2 [A,E]>[A,E] | B,2 [B,,B,]2 [E,B,]4 | %11
 [A,C]2 A,>A, [A,,A,]2 [C,A,]>[C,A,] | [D,A,]2 [D,A,]2 [A,,A,]4 | [C,A,]2 [E,G,]>[E,G,] A,2 (A,D) | %14
 [E,C]2 [E,B,]>[E,D] [A,,C]4 | x8 |] %16
V:4
 x8 | x8 | x8 | x16 | x8 | x8 | x2 E,2 x4 | x8 | x8 | x8 | B,2 x6 | x2 A,>A, x4 | x8 | x4 A,2 D,2 | %14
 x8 | x8 |] %16

